X:589
T:Reel 589
M:4/4
K:Ador
L:1/8
DF|E>A, (3A,G,A, CDB,G,|E,A,A,B, A,B,CD|EA, (3B,A,G, B,G,DG,|B,G,G,A, G,B,CD:||2EDCE DCA,B,|CB,CD EAAG|EDEF G2AG|EDEF G2GA|BGAF GFED|EDEF G2AG|EDEF G2FG|AFGE A2GF|EDEF GDB,G,|
